X:1
T:Trois Chansons de Bilitis
T:La flûte de Pan
T:1. la flûte de Pan
T:Claude Debussy
T:Pierre Louÿs
T:Trois Chansons de Bilitis
T:Creative Commons copyright waiver (CC0 1.0 Universal) 
T:Creative Commons copyright waiver (CC0 1.0 Universal) 
T:Creative Commons copyright waiver (CC0 1.0 Universal) 
T:Creative Commons copyright waiver (CC0 1.0 Universal) 
T:Creative Commons copyright waiver (CC0 1.0 Universal) 
C:Claude Debussy
Z:Pierre Louÿs
Z:Creative Commons copyright waiver (CC0 1.0 Universal)
%%score 1 { ( 2 4 ) | ( 3 5 ) }
L:1/8
Q:1/4=64
M:4/4
K:B
V:1 treble nm="Voice" snm="Vo."
V:2 treble nm="Piano" snm="Pno."
V:4 treble 
V:3 bass 
V:5 bass 
V:1
"^Lent et sans rigueur de rythme" z8 |[M:3/4] z6 | %2
w: ||
[K:B][M:4/4] z2!p!"^Doux et soutenu" D D (3F F ^E (3DE F | G- G/ z/ z2 z/ G/ G/ G/ B/ B/ B/ B/ | %4
w: Pour le jour des Hy- a- * cin-|thies,~ _ il m'a don- né u- ne sy-|
[K:B][M:3/4] G G/ G/ G/ G/ (3G/ G/ G/ !tenuto!!fermata!B (3B/ A/ G/ | %5
w: rinx fai- te de ro- seaux bien tail- lés, u- nis a-|
[M:4/4] G/ G/!>(! (3(B/A/) G/!>)! G/ G/!>(! (3(B/A/) G/!>)! (3G/ G/ G/!>(! (3(B/A/) G/!>)!"^Retenu"[Q:1/4=54] (3!tenuto!G/ !tenuto!E/ !tenuto!E/ !fermata!E | %6
w: vec la blan- * che ci- re qui _ est douce à mes le- * vres com- me le miel.|
[Q:1/4=64] (3z E E (3F F F E E D/ D/ (3D/ D/ F/ ||[M:3/4] C2 z E/ E/ B,/ B,/ C/ C/ | %8
w: Il m'ap- prend à jou- er, as- si- se sur ses ge-|noux; mais je suis un peu trem-|
 F C (3z!<(! E E (3F F F!<)! | B/!pp! B/ A/!>(! A/ (3F F F (3=D D D!>)! | %10
w: blan- te. Il en joue a- près|moi, si dou- ce- ment que je l'en- tends à|
!>(! =D2!>)![Q:1/4=60] B, z[Q:1/4=54] z2 |[M:4/4][Q:1/4=64] z4 z2 z/ G/ G/ G/ | %12
w: pei- ne.|Nous n'a- vons|
[M:3/4]!p! (3A G F D D/ z/!<(! =D/ D/ ^D/ D/!<)! |!>(! (3A G F D!>)! D/ z/ z/!p! =D/ ^D/ D/ | %14
w: rien à nous di- re, tant nous som- mes|près l'un de l'au tre; mais nos chan-|
 F F/ F/ =F/ F/ _A/ A/ z/!p! A/ A/ =G/ | %15
w: sons veu- lent se ré- pon- dre, et tour à|
 F F!pp! (3=F"^Rit" F F[Q:1/4=56] F/ =G/[Q:1/4=50] _A/ =G/ |[M:4/4][Q:1/4=64] (^A2 F) z z4 | %17
w: tour nos bou- ches s'u- nis- sent sur la|flû- te.|
[M:3/4] z2 z2 (3z E E | E2 z2 z2 | z/!<(! E/ E/ E/ =G/ G/ (3G/ G/ G/ ^A/ A/ A/ A/!<)! | %20
w: Il est|tard;|voi- ci le chant des gre- nouil- les ver- tes qui com-|
!>(! B/ =G/ G/ G/!>)! =D2 z2 ||[K:C]"^Plus lent"[Q:1/4=56] z2 z4 | z4 z2 | z2 z4 | %24
w: mence a- vec la nuit.||||
"^Pressez un peu"[Q:1/4=60] (3z z!pp!"^Presque sans voix" E (3E E E (3E E E | %25
w: Ma mè- re ne croi- ra ja-|
[M:4/4] E E/ E/ E/ E/ (3E/ E/ E/ (3E E E[Q:1/4=52] (3A/ E/ E/ (3E/ E/ G/ || %26
w: mais que je suis res- tée si long- temps à cher- cher ma cein- tu- re per-|
[K:B]"^a Tempo"[Q:1/4=64] D2- D z z4 | z8 |[M:3/4][Q:1/4=45] z6[Q:1/4=36] | z6 |] %30
w: du- e.||||
V:2
!pp! z2!<(! (6:4:6(B/c/d/^e/f/g/)!<)!!>(! (!fermata!a-(3a/g/f/)!>)!!>(! (d-(3d/c/B/)!>)! | %1
[M:3/4] (.[C^EG].[B,DG]- [B,DG].[CEG] !tenuto![B,DFB]2) |[K:B][M:4/4] !tenuto![B,DFB]8 | %3
!pp! z2!<(! (6:4:6(B/c/d/^e/f/g/)!<)!!>(! (a-(3a/g/!>)!f/)!>(! (d-(3d/c/!>)!B/) | %4
[K:B][M:3/4] [C^EG][B,DG]- [B,DG][CEG] !tenuto!!fermata![B,DFB]2 | %5
[M:4/4]!p!!>(! ([C^EGc]!>)![B,=EGB])!p!!>(! ([C^EGc]!>)![B,=EGB])!p!!>(! ([C^EGc]!>)![B,=EGB])!pp! !fermata![eg]2 | %6
!p! (.B.B) (.c.c) (.B.B) (.B.B) ||[M:3/4] (AG G2)!<(! (FG)!<)! | (AG G2)!>(! (FF)!>)! | F2 F2 F2 | %10
!pp! =G6 | %11
[M:4/4] (6:4:6B,/C/^D/^E/F/G/!<(! (6:4:6(B/c/d/^e/f/g/)!<)! (a-!>(!(3a/g/f/)!>)! (d!>(!(3d/c/B/)!>)! | %12
[M:3/4]!p! (A-(3A/G/F/)!>(! (D-(3D/C/!>)!B,/)!<(! ([=G,B,]!<)![=A,C]) | %13
!>(! (A(3A/G/!>)!F/)!>(! (D(3D/C/B,/)!>)!!<(! ([=G,B,]!<)![=A,C]) | a-(3a/g/f/ _e4 | %15
!p!!>(! ^a-(3a/^g/!>)!^f/ _e4 | %16
[M:4/4]!pp! (6:4:6(^d/^c/^A/c/d/c/) (6:4:6(A/c/d/c/A/c/) (6:4:6(d/c/A/c/d/c/) (6:4:6(A/c/d/c/A/c/) | %17
[M:3/4]!pp! (6:4:6(d/c/^A/c/d/c/) (6:4:6(A/c/d/c/A/c/) (6:4:6(d/c/A/c/d/c/) | %18
 (6:4:6A/c/d/c/A/c/ (6:4:6(d/c/A/c/d/c/) (6:4:6(A/c/d/c/A/c/) | %19
 (6:4:6(d/c/^A/c/d/c/) (6:4:6(A/c/d/c/A/c/) (6:4:6(d/c/A/c/d/c/) | %20
!ppp! (3(.[=D=GB].[DGB].[DGB]) (3(.[GB=d].[GBd].[GBd]) (3(=ggg) || %21
[K:C]!pp!"_Léger mais sans sécheresse" (3.[deg].[deg].[deg] (3.[deg].[deg].[deg] (3.[deg].[deg].[deg] | %22
 (3.[deg].[deg].[deg] (3.[deg].[deg].[deg] (3.[deg].[deg].[deg] | %23
 (3.[deg].[deg].[deg] (3.[deg].[deg].[deg] (3.[deg].[deg].[deg] | %24
 (3.[deg].[deg].[deg] (3.[deg].[deg].[deg] (3.[ceg].[ceg].[ceg] | %25
[M:4/4]!pp! (3.[DEG].[DEG].[DEG] (3.[DEG].[DEG].[DEG] (3.[CEG].[CEG].[CEG] z2 || %26
[K:B] z4!pp!"^Tres lointain" (6:4:6(B,/C/D/E/F/G/ A2) |!>(! (a2- (3ag!>)!f)!>(! (d2- (3dcB)!>)! | %28
[M:3/4]!ppp!"^Très retenu" [C^EG][B,DG]- [B,DG][CEG] [B,DFB]2 | [B,DFB]6 |] %30
V:3
!ped! (.D,.G,,)[K:treble] [B,DFA]6 | %1
[M:3/4][K:bass]!ped! (.[C,G,]!ped-up!!ped!.[G,,D,G,]-!ped-up! [G,,D,G,]!ped!.[C,G,]!ped-up!!ped! !tenuto![B,,F,]2)!ped-up! | %2
[K:B][M:4/4] !tenuto![B,,F,]8 |!ped! (.D,!ped-up!.G,,)[K:treble] [B,DFA]6 | %4
[K:B][M:3/4][K:bass]!ped! [C,G,]!ped![G,,D,G,]-!ped-up! [G,,D,G,]!ped![C,G,]!ped-up!!ped! !tenuto!!fermata![B,,F,]2!ped-up! | x2!ped-up! %5
[M:4/4]!ped! ([C,,G,,^E,]!ped-up!!ped![=E,,B,,G,])!ped-up!!ped! ([C,,G,,^E,]!ped-up!!ped![=E,,B,,G,])!ped-up!!ped! ([C,,G,,^E,]!ped-up!!ped![=E,,B,,G,])!ped-up![K:treble] !fermata![EB]2 | %6
!ped! z !tenuto![Ee]!ped-up!!ped! z !tenuto![Ee]!ped-up!!ped! z !tenuto![Ee]!ped-up!!ped! z!ped-up! [Dd]!ped-up! || %7
[M:3/4][K:bass]!ped! ([F,C]!ped!!ped-up!!ped![C,G,]!ped!!ped-up!!ped! [E,B,]2)!ped!!ped-up!!<(!!ped! [B,,F,]!ped!!ped-up!!<)!!ped![C,G,]!ped-up! | x!ped-up! %8
!ped! ([F,C]!ped-up!!ped![C,G,]!ped-up!!ped! [E,B,]2)!ped-up!!ped! [B,,F,]2-!ped-up! | %9
!ped! [B,,F,]6!ped-up! |!ped! [=G,,=D,]6!ped-up! | %11
[M:4/4]!p!!ped! .B,,!ped-up!.[^E,,,^E,,][K:treble] (A4 G2) | %12
[M:3/4][K:bass]!>(!!ped![I:staff -1] [B,D]2!ped-up!!>)!!ped![I:staff +1] [E,=A,]2!ped!!ped-up!!<(! =D,!ped!!<)!!ped-up!!ped!^D,!ped-up! | %13
!ped![I:staff -1] [B,D]2!ped-up!!ped![I:staff +1] [E,=A,]2!ped-up!!ped!!<(! =D,!ped-up!!ped!^D,!ped-up!!<)! | %14
 (([D,G,F]2 [_B,,_E,]4)) | (([^D,^G,^F]2 [_B,,_E,]4)) |[M:4/4]!ped! [F,,C,A,]8[K:treble]!ped-up! | %17
[M:3/4][K:bass]!ped! [=A,,E,]6[K:treble]!ped-up! |[K:bass]!ped! [F,,C,]6[K:treble] | %19
[K:bass]!ped! [=A,,E,]6[K:treble]!ped-up! |[K:bass]!ped! [=G,,,=D,,]6!ped-up! || %21
[K:C][K:treble]!ped!{/_B} .E{/^c}.G{/B} .E{/c}.G{/B} .E{/c}.G!ped-up! | %22
[K:bass]!ped! z2 !tenuto![A,A]2- [A,A] z!ped-up! | %23
[K:treble]!ped!{/_B} .E!ped-up!{/^c}.G{/B} .E{/c}.G{/B} .E{/c}.G | %24
!ped! z!ped-up! [Aa]!ped! z!ped-up! [Aa]!ped! z!ped-up! [Aa] | %25
[M:4/4][K:bass]!ped! z!ped-up! [A,A]!ped! z!ped-up! [A,A]!ped! z!ped-up! [A,A] x2 || %26
[K:B]!>(!!ped! (B,,2 [^E,,,^E,,])!>)! z z2!ped-up![K:treble] (6:4:6(B/c/d/^e/[I:staff -1]f/g/) | %27
[I:staff +1][K:bass]!ped! (D,2!ped-up! [G,,,G,,]) z!ped! z4!ped-up! | %28
[M:3/4]!ped! [C,G,]!ped-up!!ped![G,,D,G,]-!ped-up! [G,,D,G,]!ped![C,G,]!ped-up!!ped! [B,,F,]2!ped-up! | %29
 [B,,F,]6 |] %30
V:4
 x8 |[M:3/4] x6 |[K:B][M:4/4] x8 | x8 |[K:B][M:3/4] x6 |[M:4/4] x8 | %6
 (3G/F/E/(3G/F/E/ (3A/G/F/(3A/G/F/ (3G/F/E/(3G/F/E/ (3G/F/E/(3G/F/E/ || %7
[M:3/4] (3(F/^E/D/)(3(E/D/C/) (3=E/D/C/(3(E/D/C/) (3(D/C/B,/)(3(^E/D/C/) | %8
 (3F/^E/D/(3E/D/C/ (3=E/D/C/(3E/D/C/ (3D/C/B,/(3D/C/B,/ | %9
 (3(=D/C/"^Très dim."B,/)(3(D/C/B,/) (3(D/C/B,/)(3(D/C/B,/) (3(D/C/B,/)(3(D/C/B,/) | %10
 (3(=D/C/B,/)(3(D/C/B,/)"^Rit." (D/C/B,/D/-) (D/CB,/-) |[M:4/4] x8 |[M:3/4] x6 | x6 | %14
 ([Bd]2 [=F_A]4) | ([=B^d]2 [=F_A]4) |[M:4/4] [CF]8 |[M:3/4] [C=G]6 | [CF]6 | [C=G]6 | x6 || %21
[K:C] x6 | x6 | x6 | x6 |[M:4/4] x8 ||[K:B] x8 | x8 |[M:3/4] x6 | x6 |] %30
V:5
 x2[K:treble] x6 |[M:3/4][K:bass] x6 |[K:B][M:4/4] x8 | x2[K:treble] x6 |[K:B][M:3/4][K:bass] x6 | %5
[M:4/4] x6[K:treble] x2 | x8 ||[M:3/4][K:bass] x6 | x6 | x6 | x6 |[M:4/4] x2[K:treble] [B,DF]6 | %12
[M:3/4][K:bass] [C,,G,,=E,]2 [=A,,,E,,=A,,]2 ([=G,,,=D,,=G,,][B,,,F,,B,,]) | %13
 ([C,,G,,=E,]2 [=A,,,E,,=A,,]2) ([=G,,,=D,,=G,,][B,,,F,,B,,]) | %14
 x2 (6:4:6(_D/_E/=F/=G/[I:staff -1]_A/_B/ =c/_B/A/=G/) | %15
[I:staff +1] x2 (6:4:6(_D/_E/"^Rit"=F/=G/[I:staff -1]_A/_B/ =c/B/A/=G/) | %16
[M:4/4] x2[I:staff +1][K:treble]!>(! (3(d'/c'/a/-)!>)!a!<(! (3(A,/C/D/-)!<)!D!>(! (3(d'/c'/a/-)!>)!a | %17
[M:3/4][K:bass] x2[K:treble] [e=g] z E z |[K:bass] x2[K:treble] [ef] z E z | %19
[K:bass] x2[K:treble] [e=g] z E z |[K:bass] x6 ||[K:C][K:treble] x6 |[K:bass] [C,,G,,]6 | %23
[K:treble] x6 | ([CG]2 [A,E]2 [F,C]2) |[M:4/4][K:bass] ([C,G,]2 [A,,E,]2 [F,,C,]2) z2 || %26
[K:B] x6[K:treble] x2 |[K:bass] x8 |[M:3/4] x6 | x6 |] %30

